src/assets/icons/filters/categories/tv.svg

<svg width="48" height="47" viewBox="0 0 48 47" fill="none" xmlns="http://www.w3.org/2000/svg">
<path fill-rule="evenodd" clip-rule="evenodd" d="M26.121 7.49827L31.0605 2.56027C31.1998 2.42101 31.3102 2.25567 31.3856 2.07371C31.461 1.89175 31.4998 1.69673 31.4998 1.49977C31.4998 1.30282 31.461 1.1078 31.3856 0.925835C31.3102 0.743874 31.1998 0.57854 31.0605 0.439274C30.9212 0.300007 30.7559 0.189534 30.5739 0.114163C30.392 0.0387927 30.197 0 30 0C29.6022 0 29.2208 0.158012 28.9395 0.439274L23.25 6.12877L17.5605 0.439274C17.4212 0.300007 17.2559 0.189534 17.0739 0.114163C16.892 0.0387927 16.697 0 16.5 0C16.303 0 16.108 0.0387927 15.9261 0.114163C15.7441 0.189534 15.5788 0.300007 15.4395 0.439274C15.3002 0.57854 15.1898 0.743874 15.1144 0.925835C15.039 1.1078 15.0002 1.30282 15.0002 1.49977C15.0002 1.69673 15.039 1.89175 15.1144 2.07371C15.1898 2.25567 15.3002 2.42101 15.4395 2.56027L20.379 7.49977H4.437C3.2606 7.50097 2.13272 7.96882 1.30088 8.80066C0.469042 9.6325 0.00119129 10.7604 0 11.9368V40.5628C0.00119129 41.7392 0.469042 42.867 1.30088 43.6989C2.13272 44.5307 3.2606 44.9986 4.437 44.9998H6C5.9982 45.1972 6.03577 45.393 6.11053 45.5757C6.1853 45.7584 6.29574 45.9244 6.43541 46.0639C6.57508 46.2035 6.74117 46.3137 6.92396 46.3883C7.10676 46.4629 7.30259 46.5003 7.5 46.4983C7.69754 46.5003 7.8935 46.4628 8.07639 46.3882C8.25928 46.3135 8.42544 46.2031 8.56513 46.0634C8.70482 45.9237 8.81523 45.7576 8.8899 45.5747C8.96458 45.3918 9.00201 45.1958 9 44.9983H37.5C37.4982 45.1957 37.5358 45.3915 37.6105 45.5742C37.6853 45.7569 37.7957 45.9229 37.9354 46.0624C38.0751 46.202 38.2412 46.3122 38.424 46.3868C38.6068 46.4614 38.8026 46.4988 39 46.4968C39.1973 46.4988 39.393 46.4614 39.5757 46.3869C39.7584 46.3125 39.9244 46.2023 40.064 46.063C40.2037 45.9236 40.3142 45.7578 40.389 45.5752C40.4639 45.3927 40.5016 45.1971 40.5 44.9998H43.563C44.7394 44.9986 45.8673 44.5307 46.6991 43.6989C47.531 42.867 47.9988 41.7392 48 40.5628V11.9368C47.9988 10.7604 47.531 9.6325 46.6991 8.80066C45.8673 7.96882 44.7394 7.50097 43.563 7.49977H26.121V7.49827Z" fill="#CFD8DC"/>
<path fill-rule="evenodd" clip-rule="evenodd" d="M45 17.9983V40.5628C44.9992 40.9436 44.8476 41.3087 44.5782 41.578C44.3089 41.8473 43.9439 41.999 43.563 41.9998H4.437C4.05613 41.999 3.69108 41.8473 3.42176 41.578C3.15245 41.3087 3.00079 40.9436 3 40.5628V11.9368C3.00079 11.5559 3.15245 11.1909 3.42176 10.9215C3.69108 10.6522 4.05613 10.5006 4.437 10.4998H43.563C43.9439 10.5006 44.3089 10.6522 44.5782 10.9215C44.8476 11.1909 44.9992 11.5559 45 11.9368V17.9968V17.9983ZM26.121 7.49827H43.563C44.7399 7.49947 45.8682 7.96773 46.7002 8.80022C47.5321 9.63271 47.9996 10.7614 48 11.9383V40.5643C47.9988 41.7407 47.531 42.8686 46.6991 43.7004C45.8673 44.5322 44.7394 45.0001 43.563 45.0013H40.5C40.5018 45.1987 40.4642 45.3945 40.3895 45.5772C40.3147 45.7599 40.2043 45.9259 40.0646 46.0654C39.9249 46.205 39.7588 46.3152 39.576 46.3898C39.3932 46.4644 39.1974 46.5018 39 46.4998C38.8025 46.5018 38.6065 46.4644 38.4236 46.3897C38.2407 46.315 38.0746 46.2046 37.9349 46.0649C37.7952 45.9252 37.6848 45.7591 37.6101 45.5762C37.5354 45.3933 37.498 45.1973 37.5 44.9998H9C9.00201 45.1973 8.96458 45.3933 8.8899 45.5762C8.81523 45.7591 8.70482 45.9252 8.56513 46.0649C8.42544 46.2046 8.25928 46.315 8.07639 46.3897C7.8935 46.4644 7.69754 46.5018 7.5 46.4998C7.30246 46.5018 7.1065 46.4644 6.92361 46.3897C6.74072 46.315 6.57456 46.2046 6.43487 46.0649C6.29518 45.9252 6.18477 45.7591 6.1101 45.5762C6.03542 45.3933 5.99799 45.1973 6 44.9998H4.437C3.26086 44.9986 2.13321 44.5309 1.30141 43.6994C0.469614 42.8679 0.00158824 41.7404 0 40.5643V11.9368C0.00119129 10.7604 0.469042 9.6325 1.30088 8.80066C2.13272 7.96882 3.2606 7.50097 4.437 7.49977H20.379L15.4395 2.56027C15.3002 2.42101 15.1898 2.25567 15.1144 2.07371C15.039 1.89175 15.0002 1.69673 15.0002 1.49977C15.0002 1.10201 15.1582 0.720536 15.4395 0.439274C15.7208 0.158012 16.1022 0 16.5 0C16.8978 0 17.2792 0.158012 17.5605 0.439274L23.25 6.12877L28.9395 0.439274C29.2208 0.158012 29.6022 0 30 0C30.3978 0 30.7792 0.158012 31.0605 0.439274C31.3418 0.720536 31.4998 1.10201 31.4998 1.49977C31.4998 1.89754 31.3418 2.27901 31.0605 2.56027L26.121 7.49827ZM42.93 16.6183C42.75 16.6933 42.585 16.7983 42.435 16.9333C42.165 17.2183 42 17.6083 42 17.9983C41.998 18.1958 42.0354 18.3918 42.1101 18.5747C42.1848 18.7576 42.2952 18.9237 42.4349 19.0634C42.5746 19.2031 42.7407 19.3135 42.9236 19.3882C43.1065 19.4629 43.3025 19.5003 43.5 19.4983C43.6975 19.5003 43.8935 19.4629 44.0764 19.3882C44.2593 19.3135 44.4254 19.2031 44.5651 19.0634C44.7048 18.9237 44.8152 18.7576 44.8899 18.5747C44.9646 18.3918 45.002 18.1958 45 17.9983C45 17.6083 44.835 17.2183 44.565 16.9333C44.3541 16.7251 44.0862 16.5841 43.7952 16.5281C43.5042 16.472 43.2032 16.5034 42.93 16.6183V16.6183ZM42.435 24.4333C42.165 24.7183 42 25.1083 42 25.4983C42 25.9033 42.15 26.2783 42.435 26.5633C42.585 26.6983 42.75 26.8183 42.93 26.8783C43.11 26.9683 43.305 26.9983 43.5 26.9983C43.695 26.9983 43.89 26.9683 44.07 26.8783C44.25 26.8183 44.415 26.6983 44.565 26.5633C44.7047 26.4236 44.8151 26.2575 44.8898 26.0746C44.9645 25.8917 45.002 25.6958 45 25.4983C45 25.1083 44.835 24.7183 44.565 24.4333C43.995 23.8783 42.99 23.8783 42.435 24.4333ZM42.93 31.6183C42.735 31.6933 42.585 31.7983 42.435 31.9333C42.165 32.2183 42 32.6083 42 32.9983C41.998 33.1958 42.0354 33.3918 42.1101 33.5747C42.1848 33.7576 42.2952 33.9237 42.4349 34.0634C42.5746 34.2031 42.7407 34.3135 42.9236 34.3882C43.1065 34.4629 43.3025 34.5003 43.5 34.4983C43.6975 34.5003 43.8935 34.4629 44.0764 34.3882C44.2593 34.3135 44.4254 34.2031 44.5651 34.0634C44.7048 33.9237 44.8152 33.7576 44.8899 33.5747C44.9646 33.3918 45.002 33.1958 45 32.9983C45 32.6083 44.835 32.2183 44.565 31.9333C44.145 31.5283 43.485 31.3783 42.93 31.6183ZM36.72 34.2208C36.519 35.1973 35.34 36.2833 34.338 36.4138C26.4762 37.3573 18.5298 37.3573 10.668 36.4138C9.663 36.2863 8.4825 35.1988 8.283 34.2343C7.24403 28.9661 7.24301 23.5458 8.28 18.2773C8.4825 17.2993 9.6645 16.2118 10.656 16.0858C18.5197 15.1413 26.4682 15.1408 34.332 16.0843C35.337 16.2133 36.5175 17.3008 36.717 18.2638C37.755 23.5633 37.755 28.9363 36.72 34.2208V34.2208ZM34.7025 13.1068C26.5925 12.1351 18.3954 12.1357 10.2855 13.1083C8.0175 13.3993 5.8005 15.4468 5.34 17.6878C4.22501 23.3455 4.22602 29.1665 5.343 34.8238C5.8005 37.0513 8.0175 39.1003 10.2975 39.3913C18.4034 40.3638 26.5966 40.3638 34.7025 39.3913L34.713 39.3898C36.981 39.1003 39.198 37.0528 39.6615 34.8118C40.776 29.1535 40.7745 23.332 39.657 17.6743C39.1995 15.4483 36.984 13.4008 34.701 13.1068H34.7025Z" fill="#253238"/>
<path opacity="0.5" fill-rule="evenodd" clip-rule="evenodd" d="M36.7199 34.2208C36.5189 35.1973 35.3399 36.2833 34.3379 36.4138C26.4761 37.3573 18.5297 37.3573 10.6679 36.4138C9.66292 36.2863 8.48242 35.1988 8.28292 34.2343C7.24394 28.9661 7.24293 23.5458 8.27992 18.2773C8.48242 17.2993 9.66442 16.2118 10.6559 16.0858C18.5196 15.1413 26.4681 15.1408 34.3319 16.0843C35.3369 16.2133 36.5174 17.3008 36.7169 18.2638C37.7549 23.5633 37.7549 28.9363 36.7199 34.2208" fill="white"/>
</svg>

<svg width="48" height="47" viewBox="0 0 48 47" fill="none" xmlns="http://www.w3.org/2000/svg"><path fill-rule="evenodd" clip-rule="evenodd" d="M26.121 7.498l4.94-4.938A1.5 1.5 0 1028.939.44L23.25 6.128 17.56.439a1.5 1.5 0 00-2.12 2.121l4.939 4.94H4.437A4.442 4.442 0 000 11.937v28.626A4.442 4.442 0 004.437 45H6a1.485 1.485 0 001.5 1.498 1.486 1.486 0 001.5-1.5h28.5a1.486 1.486 0 001.5 1.499A1.485 1.485 0 0040.5 45h3.063A4.442 4.442 0 0048 40.563V11.937A4.441 4.441 0 0043.563 7.5H26.121v-.002z" fill="#CFD8DC"/><path fill-rule="evenodd" clip-rule="evenodd" d="M45 17.998v22.565A1.44 1.44 0 0143.563 42H4.437A1.44 1.44 0 013 40.563V11.937A1.44 1.44 0 014.437 10.5h39.126A1.44 1.44 0 0145 11.937v6.061zm-18.879-10.5h17.442A4.442 4.442 0 0148 11.938v28.626a4.441 4.441 0 01-4.437 4.437H40.5A1.486 1.486 0 0139 46.5a1.485 1.485 0 01-1.5-1.5H9a1.485 1.485 0 01-1.5 1.5A1.485 1.485 0 016 45H4.437A4.442 4.442 0 010 40.564V11.937A4.442 4.442 0 014.437 7.5h15.942l-4.94-4.94A1.5 1.5 0 1117.562.44l5.689 5.689 5.69-5.69a1.5 1.5 0 012.12 2.121l-4.939 4.938zm16.809 9.12c-.18.075-.345.18-.495.315-.27.285-.435.675-.435 1.065a1.485 1.485 0 001.5 1.5 1.485 1.485 0 001.5-1.5c0-.39-.165-.78-.435-1.065a1.499 1.499 0 00-1.635-.315zm-.495 7.815c-.27.285-.435.675-.435 1.065 0 .405.15.78.435 1.065.15.135.315.255.495.315.18.09.375.12.57.12.195 0 .39-.03.57-.12.18-.06.345-.18.495-.315A1.485 1.485 0 0045 25.498c0-.39-.165-.78-.435-1.065-.57-.555-1.575-.555-2.13 0zm.495 7.185c-.195.075-.345.18-.495.315-.27.285-.435.675-.435 1.065a1.485 1.485 0 001.5 1.5 1.485 1.485 0 001.5-1.5c0-.39-.165-.78-.435-1.065-.42-.405-1.08-.555-1.635-.315zm-6.21 2.603c-.201.976-1.38 2.062-2.382 2.193a99.324 99.324 0 01-23.67 0c-1.005-.128-2.185-1.215-2.385-2.18a41.274 41.274 0 01-.003-15.957c.203-.978 1.385-2.065 2.376-2.191a99.322 99.322 0 0123.676-.002c1.005.13 2.185 1.217 2.385 2.18a41.332 41.332 0 01.003 15.957zm-2.017-21.114a102.576 102.576 0 00-24.418.001c-2.268.291-4.484 2.339-4.945 4.58a44.273 44.273 0 00.003 17.136c.458 2.227 2.675 4.276 4.954 4.567 8.106.973 16.3.973 24.405 0l.011-.001c2.268-.29 4.485-2.337 4.948-4.578a44.28 44.28 0 00-.004-17.138c-.457-2.226-2.673-4.273-4.956-4.567h.002z" fill="#253238"/><path opacity=".5" fill-rule="evenodd" clip-rule="evenodd" d="M36.72 34.22c-.201.977-1.38 2.063-2.382 2.194a99.324 99.324 0 01-23.67 0c-1.005-.128-2.186-1.215-2.385-2.18a41.274 41.274 0 01-.003-15.957c.202-.978 1.384-2.065 2.376-2.191a99.322 99.322 0 0123.676-.002c1.005.13 2.185 1.217 2.385 2.18a41.332 41.332 0 01.003 15.957" fill="#fff"/></svg>
